src/components/Icon/utils/svgsOptimized/text-align-center.svg

<svg width="24" height="24" viewBox="0 0 24 24"  xmlns="http://www.w3.org/2000/svg">
<path d="M7.50001 6H16.5C16.6657 6 16.8 6.13431 16.8 6.3V6.9C16.8 7.06569 16.6657 7.2 16.5 7.2H7.50001C7.33433 7.2 7.20001 7.06569 7.20001 6.9V6.3C7.20001 6.13431 7.33433 6 7.50001 6Z" />
<path d="M16.5 14.1H7.50001C7.33433 14.1 7.20001 14.2343 7.20001 14.4V15C7.20001 15.1657 7.33433 15.3 7.50001 15.3H16.5C16.6657 15.3 16.8 15.1657 16.8 15V14.4C16.8 14.2343 16.6657 14.1 16.5 14.1Z" />
<path d="M14.7 16.8H9.3C9.13431 16.8 9 16.9343 9 17.1V17.7C9 17.8657 9.13431 18 9.3 18H14.7C14.8657 18 15 17.8657 15 17.7V17.1C15 16.9343 14.8657 16.8 14.7 16.8Z" />
<path d="M15.3 11.4H8.69999C8.53431 11.4 8.39999 11.5343 8.39999 11.7V12.3C8.39999 12.4657 8.53431 12.6 8.69999 12.6H15.3C15.4657 12.6 15.6 12.4657 15.6 12.3V11.7C15.6 11.5343 15.4657 11.4 15.3 11.4Z" />
<path d="M6.3 8.70001H17.7C17.8657 8.70001 18 8.83433 18 9.00001V9.60001C18 9.7657 17.8657 9.90001 17.7 9.90001H6.3C6.13431 9.90001 6 9.7657 6 9.60001V9.00001C6 8.83433 6.13431 8.70001 6.3 8.70001Z" />
</svg>

<?xml version="1.0" encoding="utf-8"?><svg width="24" height="24" xmlns="http://www.w3.org/2000/svg" viewBox="0 0 24 24"><path d="M7.5 6h9a.3.3 0 0 1 .3.3v.6a.3.3 0 0 1-.3.3h-9a.3.3 0 0 1-.3-.3v-.6a.3.3 0 0 1 .3-.3Zm9 8.1h-9a.3.3 0 0 0-.3.3v.6a.3.3 0 0 0 .3.3h9a.3.3 0 0 0 .3-.3v-.6a.3.3 0 0 0-.3-.3Zm-1.8 2.7H9.3a.3.3 0 0 0-.3.3v.6a.3.3 0 0 0 .3.3h5.4a.3.3 0 0 0 .3-.3v-.6a.3.3 0 0 0-.3-.3Zm.6-5.4H8.7a.3.3 0 0 0-.3.3v.6a.3.3 0 0 0 .3.3h6.6a.3.3 0 0 0 .3-.3v-.6a.3.3 0 0 0-.3-.3Zm-9-2.7h11.4a.3.3 0 0 1 .3.3v.6a.3.3 0 0 1-.3.3H6.3a.3.3 0 0 1-.3-.3V9a.3.3 0 0 1 .3-.3Z"/></svg>
